X: 26741
T: Mileva Ruchenitza
R: reel
M: 4/4
K: Bminor
z|:^A2B2 ~c2c|c2c2 ~c2B|cedc B^AB|~c2c2 z2F|
^A2B2 ~c2c|c2c2 ~c2B|^AcBA GFE|1 FG^AB c2F:|2 ~F2FC ~F2z||
|:cddc ~B2B|BccB ~^A2A|^ABBA GFE|FG^AB ~c2c|
eddc ~B2B|BccB ~^A2A|^ABBA GFE|~F2FE~F2z:|
BGee e2e|e2e2 ~e2d|BF~d2 d2d|d2d2 ~d2c|
FGEF G^AB|cddc B^AG|^ABBA GFE|FG^AB ~c2c|
BGee e2e|e2e2 ~e2d|BF~d2 d2d|d2d2 ~d2c|
FGEF G^AB|cddc B^AG|eddc B^AG|^ABBA GFE|~F2FC F2z||

